X:119
T:Dunmore Lasses
R: Reel
M: 4/4
L: 1/8
K: Edor
EDEF GFGA | Beed Beed | EDEF GABG | A2BA GFED |
EDEF GFGA | Beed e2ef | gefd edBA | GBAG FED2 :|
|: gfeg fedA | Beed Beef | gfeg feBA | GBAG FED2 |
gfeg fedA | Beed e2ef | gefd edBA | GBAG FED2 :|

%%newpage
%%scale .7
%%staffsep 35

